X:1
T:Title
%%score { ( 1 2 ) | ( 3 4 ) }
L:1/8
M:4/4
K:C
V:1 treble nm="Grand Piano"
V:2 treble 
V:3 bass 
V:4 bass 
V:1
 z4[Q:1/4=100] z2 B2 | c2 [DG]2 [CE]3 [CF] | [CE]2 [B,D]2 E2 F2 | G2 c2 d2 z F |[M:2/4] [Ee]4 | %5
 [Ge]2 [B,Gd]2 |[M:4/4] .[CGc]2 [DGB]2 [CEA]3 [B,EG] | [B,DG]2 [A,D^F]2 [DA]2 [DA]2 | %8
 [Dd]2 [B,G]2 [Ec]2 [DB][CA] |[M:2/4] [B,G]4 | B3 c |[M:4/4] d2 B2 [DG]3 [B,F] | z4 c2 z2 | %13
 z4 [Ge]2 d2 |[M:2/4] [Ec]4 |] %15
V:2
 z4 [Ec]2 z F, | x8 | x8 | z4 z2 G2 |[M:2/4] x4 | x4 |[M:4/4] x8 | x8 | x8 |[M:2/4] x4 | x4 | %11
[M:4/4] x8 | E2 G2 z F [Gc]2 | [Fc]2 [Af]2 z F, z F |[M:2/4] x4 |] %15
V:3
 z4 [C,G,]2 [G,D]2 | [E,G,C]2 [B,,G,]2 [C,G,]3 [A,,F,] | [G,,G,]2 [G,,G,]2 [C,G,C]2 [D,G,B,]2 | %3
 [E,G,C]2 [A,E]2 [F,A,D]2 .[G,B,E]2 |[M:2/4] [C,C]4 | [C,C]2 G,,2 |[M:4/4] z ^F B,,2 C,3 C, | %7
 D,2 D,2 [D,^F,]2 [C,F,]2 | [B,,G,]2 [E,G,]2 [C,G,]2 [D,^F,]2 |[M:2/4] [G,,G,]4 | [G,DG]3 [G,CG] | %11
[M:4/4] [G,B,G]2[K:bass] [G,D]2 [B,,G,]3 [G,,G,] | [C,G,C]2 [E,C]2 .[A,CE]2 [E,_B,]2 | %13
 [F,A,]2 [D,B,]2 .[E,C]2 .[G,B,G]2 |[M:2/4] [C,C]4 |] %15
V:4
 x8 | x8 | x8 | x8 |[M:2/4] x4 | x4 |[M:4/4] A,,2 z2 z4 | x8 | x8 |[M:2/4] x4 | x4 | %11
[M:4/4] x2[K:bass] x6 | x8 | x8 |[M:2/4] x4 |] %15

